app/dist/common/images/saudi-industrial-export-co.svg

<svg height="18" viewBox="0 0 18 18" width="18" xmlns="http://www.w3.org/2000/svg"><path d="m0 0h18v18h-18z" fill="#f0f3fa"/><path d="m4.5 13.5v-7.4l.94-1.6h2.73l-2.57 4.53 1.54 2.69 3.38-5.85 1.37-1.37h1.61v7.51l-.87 1.49h-2.77l2.52-4.44-1.54-2.69-3.37 5.85-1.3 1.28zm-.5-7.54 1.15-1.96h8.85v8.15l-1.08 1.85h-8.92z" fill="#007ea4" fill-rule="evenodd"/></svg>

<!-- by TradingView --><svg width="18" height="18" viewBox="0 0 18 18" xmlns="http://www.w3.org/2000/svg"><path fill="#F0F3FA" d="M0 0h18v18H0z"/><path fill-rule="evenodd" d="M4.5 13.5V6.1l.94-1.6h2.73L5.6 9.03l1.54 2.69 3.38-5.85 1.37-1.37h1.61v7.51l-.87 1.49H9.86l2.52-4.44-1.54-2.69-3.37 5.85-1.3 1.28H4.5ZM4 5.96 5.15 4H14v8.15L12.92 14H4V5.96Z" fill="#007EA4"/></svg>
